packages/components/icon/src/assets/icons/download.svg

<svg width="24" height="24" viewBox="0 0 24 24" fill="none" xmlns="http://www.w3.org/2000/svg">
<path fill-rule="evenodd" clip-rule="evenodd" d="M12.1591 17.3636C12 17.3636 11.8554 17.2841 11.7252 17.125L7.34298 11.5713C7.2562 11.4556 7.21281 11.3616 7.21281 11.2893C7.21281 11.1012 7.35021 11.0072 7.625 11.0072H10.7273V4H13.5909V11.0072H16.6932C16.968 11.0072 17.1054 11.1012 17.1054 11.2893C17.1054 11.3616 17.062 11.4556 16.9752 11.5713L12.593 17.125C12.4773 17.2841 12.3326 17.3636 12.1591 17.3636ZM18.8409 17.8409C18.9711 17.8409 19.0832 17.8879 19.1772 17.9819C19.2712 18.0759 19.3182 18.188 19.3182 18.3182V19.2727C19.3182 19.4029 19.2712 19.515 19.1772 19.609C19.0832 19.703 18.9711 19.75 18.8409 19.75H5.47727C5.34711 19.75 5.23502 19.703 5.14101 19.609C5.047 19.515 5 19.4029 5 19.2727V18.3182C5 18.188 5.047 18.0759 5.14101 17.9819C5.23502 17.8879 5.34711 17.8409 5.47727 17.8409H18.8409Z" fill="currentColor"/>
</svg>

<svg viewBox="0 0 24 24" fill="none" xmlns="http://www.w3.org/2000/svg"><path fill-rule="evenodd" clip-rule="evenodd" d="M12.16 17.364c-.16 0-.305-.08-.435-.239l-4.382-5.554c-.087-.115-.13-.21-.13-.282 0-.188.137-.282.412-.282h3.102V4h2.864v7.007h3.102c.275 0 .412.094.412.282 0 .073-.043.167-.13.282l-4.382 5.554a.52.52 0 0 1-.434.239Zm6.68.477a.46.46 0 0 1 .337.14.46.46 0 0 1 .141.337v.955a.46.46 0 0 1-.14.336.46.46 0 0 1-.337.141H5.477a.46.46 0 0 1-.336-.141.46.46 0 0 1-.141-.336v-.955a.46.46 0 0 1 .141-.336.46.46 0 0 1 .336-.141h13.364Z" fill="currentColor"/></svg>
